governance/ui/public/councils/tc.svg

<svg width="24" height="24" viewBox="0 0 24 24" fill="none" xmlns="http://www.w3.org/2000/svg">
<path d="M8.31977 21.2598H8.18976C5.76856 20.232 3.82781 18.3235 2.75977 15.9198L3.67977 15.5298C4.64006 17.6841 6.37985 19.3953 8.54977 20.3198H8.62977L8.40977 20.7698L8.31977 21.2598Z" fill="white"/>
<path d="M15.8498 21.1998L15.4598 20.2798C17.6533 19.3598 19.3934 17.6089 20.2998 15.4098L21.2398 15.7598V15.8198C20.74 17.0274 20.0066 18.1243 19.0816 19.0476C18.1566 19.9709 17.0583 20.7023 15.8498 21.1998Z" fill="white"/>
<path d="M3.73977 8.61977L2.80977 8.24977C3.79016 5.79348 5.69751 3.82147 8.11977 2.75977L8.50977 3.67977C6.33314 4.63672 4.61994 6.41098 3.73977 8.61977Z" fill="white"/>
<path d="M20.2698 8.51977C19.8165 7.43621 19.1539 6.45273 18.3199 5.62563C17.486 4.79854 16.497 4.14409 15.4098 3.69977L15.7598 2.75977C16.9745 3.25219 18.0797 3.98023 19.0116 4.90189C19.9436 5.82355 20.6839 6.9206 21.1898 8.12977L20.2698 8.51977Z" fill="white"/>
<path fill-rule="evenodd" clip-rule="evenodd" d="M11.9998 18.3899C10.5214 18.3891 9.0891 17.8758 7.94679 16.9375C6.80448 15.9991 6.02287 14.6937 5.73513 13.2436C5.4474 11.7936 5.67133 10.2886 6.36878 8.98515C7.06623 7.68169 8.19405 6.66039 9.56008 6.09524C10.9261 5.53009 12.4458 5.45606 13.8603 5.88577C15.2748 6.31548 16.4966 7.22233 17.3174 8.45183C18.1382 9.68133 18.5074 11.1574 18.3619 12.6285C18.2165 14.0997 17.5654 15.4749 16.5198 16.5199C15.9277 17.1154 15.2233 17.5873 14.4474 17.9083C13.6714 18.2294 12.8395 18.393 11.9998 18.3899ZM11.9998 6.60986C11.1136 6.61108 10.2414 6.83076 9.46041 7.24947C8.67941 7.66817 8.01369 8.27297 7.52219 9.01033C7.03069 9.74769 6.72857 10.5949 6.64258 11.4768C6.55659 12.3588 6.68938 13.2484 7.0292 14.0668C7.36902 14.8852 7.90538 15.6072 8.5908 16.1689C9.27621 16.7305 10.0895 17.1146 10.9588 17.2869C11.828 17.4593 12.7263 17.4147 13.5742 17.157C14.4221 16.8994 15.1934 16.4367 15.8197 15.8099C16.5736 15.0555 17.0868 14.0944 17.2942 13.0482C17.5016 12.0021 17.3941 10.9179 16.9851 9.93293C16.5761 8.94795 15.8841 8.10644 14.9967 7.5149C14.1092 6.92337 13.0663 6.6084 11.9998 6.60986Z" fill="white"/>
<path fill-rule="evenodd" clip-rule="evenodd" d="M8.13885 21.5098L8.09203 21.4899C5.61251 20.4374 3.62502 18.4829 2.53125 16.0213L2.42798 15.7888L3.80812 15.2038L3.90806 15.428C4.83576 17.5092 6.51097 19.1655 8.60111 20.0698H9.03021L8.6494 20.8487L8.52798 21.5098H8.13885ZM8.40971 20.7698L8.62971 20.3198H8.54971C8.49499 20.2964 8.44054 20.2726 8.38636 20.2483C6.29254 19.3087 4.61579 17.6297 3.67971 15.5298L2.75971 15.9198C2.79361 15.996 2.82838 16.0718 2.86402 16.1471C3.93357 18.406 5.78339 20.2047 8.07465 21.2101C8.08075 21.2128 8.08686 21.2154 8.09296 21.2181C8.12513 21.2321 8.15738 21.246 8.18971 21.2598H8.31971L8.40971 20.7698ZM15.1316 20.1463L15.363 20.0492C17.4956 19.1548 19.1874 17.4525 20.0686 15.3145L20.1606 15.0912L21.4897 15.5861V15.8694L21.4707 15.9154C20.9584 17.1534 20.2065 18.278 19.2582 19.2245C18.3099 20.1711 17.1839 20.9209 15.9449 21.4309L15.7161 21.5251L15.1316 20.1463ZM2.48475 8.38953L2.57753 8.15708C3.58226 5.63981 5.53696 3.61885 8.01935 2.53079L8.25112 2.4292L8.83617 3.80932L8.61033 3.90862C6.49377 4.83916 4.82784 6.56446 3.97195 8.7123L3.87946 8.94441L2.48475 8.38953ZM20.136 8.84797L20.0391 8.61624C19.5985 7.56302 18.9544 6.60707 18.1438 5.80313C17.3332 4.99919 16.372 4.36306 15.3151 3.93118L15.0909 3.83954L15.6152 2.43141L15.8536 2.52807C17.0989 3.03289 18.232 3.77926 19.1874 4.72412C20.1428 5.66899 20.9017 6.79366 21.4203 8.03327L21.5164 8.26281L20.136 8.84797ZM21.2397 15.8198C20.74 17.0274 20.0065 18.1243 19.0816 19.0476C18.2156 19.912 17.1977 20.6082 16.0797 21.1017C16.0666 21.1075 16.0535 21.1132 16.0403 21.1189C15.9771 21.1465 15.9136 21.1735 15.8497 21.1998L15.4597 20.2798C15.4809 20.2709 15.502 20.2619 15.5231 20.2529C17.6867 19.326 19.4021 17.5877 20.2997 15.4098L21.2397 15.7598V15.8198ZM8.50971 3.67976C6.33309 4.63671 4.61989 6.41097 3.73971 8.61976L2.80971 8.24976C2.84065 8.17226 2.8725 8.09524 2.90527 8.01871C3.87821 5.74647 5.65339 3.91111 7.89194 2.86298C7.96734 2.82768 8.04327 2.79326 8.11971 2.75976L8.50971 3.67976ZM20.2697 8.51976L21.1897 8.12976C21.1777 8.10106 21.1656 8.07243 21.1533 8.04386C21.1327 7.99584 21.1117 7.94801 21.0903 7.90035C20.5889 6.78171 19.8843 5.76491 19.0116 4.90188C18.139 4.0389 17.1145 3.34568 15.9904 2.85667C15.914 2.82342 15.8371 2.79111 15.7597 2.75976L15.4097 3.69976C16.497 4.14408 17.4859 4.79853 18.3199 5.62563C19.1338 6.43288 19.7845 7.38913 20.2367 8.44198C20.2479 8.46785 20.2588 8.49377 20.2697 8.51976ZM11.9992 18.6399C10.4632 18.639 8.97495 18.1057 7.78805 17.1306C6.60105 16.1555 5.78886 14.799 5.48986 13.2923C5.19087 11.7855 5.42356 10.2216 6.1483 8.86719C6.87304 7.51274 8.04498 6.45148 9.46446 5.86422C10.8839 5.27696 12.4631 5.20004 13.9329 5.64656C15.4028 6.09308 16.6723 7.03541 17.5253 8.31301C18.3782 9.59061 18.7618 11.1244 18.6107 12.6531C18.4595 14.1817 17.7831 15.6106 16.6967 16.6964C16.0814 17.3152 15.3493 17.8057 14.5429 18.1393C13.7365 18.4729 12.8719 18.6431 11.9992 18.6399ZM11.9997 18.3899C10.5214 18.3891 9.08904 17.8758 7.94674 16.9375C6.80443 15.9991 6.02282 14.6936 5.73508 13.2436C5.44734 11.7935 5.67128 10.2886 6.36873 8.98514C7.06618 7.68169 8.194 6.66038 9.56003 6.09523C10.9261 5.53008 12.4458 5.45605 13.8603 5.88576C15.2748 6.31547 16.4965 7.22233 17.3173 8.45182C18.1382 9.68132 18.5073 11.1574 18.3619 12.6285C18.2164 14.0997 17.5654 15.4749 16.5197 16.5199C15.9277 17.1154 15.2232 17.5873 14.4473 17.9083C13.6714 18.2293 12.8394 18.393 11.9997 18.3899ZM12 6.85986C11.155 6.86101 10.3233 7.07051 9.57848 7.46979C8.83371 7.86907 8.19886 8.44582 7.73016 9.14898C7.26146 9.85214 6.97335 10.66 6.89135 11.5011C6.80935 12.3421 6.93598 13.1905 7.26004 13.9709C7.5841 14.7514 8.09558 15.4399 8.7492 15.9755C9.40283 16.5111 10.1784 16.8773 11.0073 17.0417C11.8363 17.2061 12.6929 17.1635 13.5015 16.9178C14.31 16.6721 15.0455 16.2309 15.6429 15.6331C16.3618 14.9137 16.8511 13.9972 17.0489 12.9996C17.2467 12.002 17.1442 10.9681 16.7541 10.0288C16.3641 9.0895 15.7042 8.28702 14.858 7.72292C14.0117 7.15882 13.0171 6.85846 12 6.85986ZM9.46036 7.24946C10.2414 6.83075 11.1135 6.61107 11.9997 6.60986C13.0662 6.60839 14.1092 6.92336 14.9966 7.5149C15.8841 8.10643 16.5761 8.94794 16.985 9.93292C17.394 10.9179 17.5016 12.0021 17.2942 13.0482C17.0867 14.0944 16.5736 15.0555 15.8197 15.8099C15.1933 16.4367 14.422 16.8994 13.5742 17.157C12.7263 17.4147 11.828 17.4593 10.9587 17.2869C10.0895 17.1146 9.27616 16.7305 8.59075 16.1689C7.90533 15.6072 7.36897 14.8852 7.02915 14.0668C6.68933 13.2484 6.55654 12.3588 6.64253 11.4768C6.72852 10.5949 7.03064 9.74768 7.52214 9.01032C8.01364 8.27296 8.67936 7.66816 9.46036 7.24946Z" fill="white"/>
<path d="M10.2634 10.6821C10.2927 10.6959 10.3187 10.7157 10.3398 10.7402L10.8398 11.3602L11.4998 10.5602L11.1598 10.1402C11.0502 10.0048 10.9114 9.89584 10.7539 9.82139C10.5963 9.74695 10.4241 9.70896 10.2498 9.71023H8.81982V10.6602H10.1698C10.2022 10.6608 10.2341 10.6683 10.2634 10.6821Z" fill="white"/>
<path d="M13.1912 9.8112C13.032 9.88559 12.8915 9.99459 12.7798 10.1302L11.2898 12.0002L10.3398 12.9602C10.3202 12.9865 10.2944 13.0075 10.2648 13.0214C10.2352 13.0354 10.2025 13.0418 10.1698 13.0402H8.81982V14.0402H10.2398C10.4153 14.0402 10.5886 14.0016 10.7476 13.9273C10.9065 13.8531 11.0472 13.7448 11.1598 13.6102L11.9698 12.6102L12.7898 13.6102C12.9004 13.7446 13.0394 13.8528 13.1967 13.9271C13.354 14.0015 13.5258 14.0401 13.6998 14.0402H15.1198V13.1502H13.7698C13.7397 13.1507 13.7098 13.1447 13.6822 13.1327C13.6546 13.1206 13.6299 13.1027 13.6098 13.0802L12.6098 11.8802L13.6098 10.7002C13.629 10.6759 13.6532 10.6562 13.6809 10.6423C13.7085 10.6285 13.7389 10.621 13.7698 10.6202H15.1198V9.70023H13.6998C13.5241 9.69889 13.3504 9.7368 13.1912 9.8112Z" fill="white"/>
</svg>

<svg width="24" height="24" fill="none" viewBox="0 0 24 24" xmlns="http://www.w3.org/2000/svg">
  <path fill="#fff" d="M8.32 21.26h-.13a10.38 10.38 0 0 1-5.43-5.34l.92-.39a9.34 9.34 0 0 0 4.87 4.79h.08l-.22.45zm7.53-.06-.39-.92a9 9 0 0 0 4.84-4.87l.94.35v.06a9.92 9.92 0 0 1-5.39 5.38M3.74 8.62l-.93-.37a10.07 10.07 0 0 1 5.31-5.49l.39.92a9.06 9.06 0 0 0-4.77 4.94m16.53-.1a8.93 8.93 0 0 0-4.86-4.82l.35-.94a9.93 9.93 0 0 1 5.43 5.37z"/>
  <path fill="#fff" fill-rule="evenodd" d="M12 18.39a6.39 6.39 0 1 1 4.52-1.87A6.34 6.34 0 0 1 12 18.39m0-11.78a5.39 5.39 0 1 0 .015 10.78A5.39 5.39 0 0 0 12 6.61" clip-rule="evenodd"/>
  <path fill="#fff" fill-rule="evenodd" d="m8.139 21.51-.047-.02a10.63 10.63 0 0 1-5.56-5.469l-.104-.232 1.38-.585.1.224a9.1 9.1 0 0 0 4.693 4.642h.43l-.382.779-.121.66zm.27-.74.22-.45h-.08l-.163-.072A9.34 9.34 0 0 1 3.68 15.53l-.92.39q.05.114.104.227a10.38 10.38 0 0 0 5.21 5.063l.019.008.097.042h.13zm6.723-.624.231-.097a8.75 8.75 0 0 0 4.706-4.734l.092-.224 1.329.495v.283l-.02.046a10.17 10.17 0 0 1-5.525 5.516l-.229.094zM2.485 8.39l.093-.233a10.32 10.32 0 0 1 5.441-5.626l.232-.102.585 1.38-.226.1a8.8 8.8 0 0 0-4.638 4.803l-.093.232zm17.651.458-.097-.232a8.68 8.68 0 0 0-4.724-4.685l-.224-.091.524-1.409.239.097a10.18 10.18 0 0 1 5.566 5.505l.096.23zm1.104 6.972a9.92 9.92 0 0 1-5.39 5.38l-.39-.92q.03-.014.063-.027A9 9 0 0 0 20.3 15.41l.94.35zM8.51 3.68a9.06 9.06 0 0 0-4.77 4.94l-.93-.37q.046-.117.095-.231a10.07 10.07 0 0 1 5.215-5.26zm11.76 4.84.92-.39-.1-.23a9.93 9.93 0 0 0-5.33-5.14l-.35.94a8.93 8.93 0 0 1 4.86 4.82M12 18.64a6.64 6.64 0 1 1 4.697-1.944 6.6 6.6 0 0 1-4.698 1.944m0-.25a6.39 6.39 0 1 1 4.52-1.87A6.34 6.34 0 0 1 12 18.39m0-11.53a5.14 5.14 0 1 0 .014 10.28A5.14 5.14 0 0 0 12 6.86m-2.54.39a5.39 5.39 0 1 1 5.094 9.5 5.39 5.39 0 0 1-5.094-9.5" clip-rule="evenodd"/>
  <path fill="#fff" d="M10.263 10.682a.2.2 0 0 1 .077.058l.5.62.66-.8-.34-.42a1.16 1.16 0 0 0-.91-.43H8.82v.95h1.35a.2.2 0 0 1 .093.022m2.928-.871a1.2 1.2 0 0 0-.411.32L11.29 12l-.95.96a.2.2 0 0 1-.17.08H8.82v1h1.42a1.2 1.2 0 0 0 .92-.43l.81-1 .82 1a1.18 1.18 0 0 0 .91.43h1.42v-.89h-1.35a.21.21 0 0 1-.16-.07l-1-1.2 1-1.18a.21.21 0 0 1 .16-.08h1.35V9.7H13.7a1.2 1.2 0 0 0-.509.11"/>
</svg>
